VirtualLibraryCreator/HTML/EN/plugins/VirtualLibraryCreator/html/images/parentfolder-music.svg

<svg height="24" viewBox="0 0 24 24" width="24" xmlns="http://www.w3.org/2000/svg"><path d="m13 11v-3.5l2.2-2.21c.8-.79.95-2.05.39-3.03-.45-.79-1.27-1.26-2.14-1.26-.21 0-.45.03-.64.09-1.08.29-1.81 1.29-1.81 2.41v3.24l-3.14 3.17c-1.66 1.69-2.16 4.22-1.25 6.43.77 1.9 2.45 3.21 4.39 3.55v.61c0 .26-.23.5-.5.5h-1.5v2h1.5c1.35 0 2.5-1.11 2.5-2.5v-.5c2.03 0 4.16-1.92 4.16-4.75 0-2.3-1.92-4.25-4.16-4.25m0-7.5c0-.23.11-.41.32-.47.22-.06.45.03.56.23.12.2.08.45-.08.61l-.8.86zm-2 8c-.97.64-1.7 1.74-1.96 2.76l1.96.52v3.05c-1.13-.3-2.1-1.12-2.57-2.26-.59-1.46-.27-3.12.83-4.24l1.74-1.83zm2 6.5v-5.06c1.17 0 2.18 1.1 2.18 2.31 0 1.75-1.27 2.75-2.18 2.75z"/></svg>

<?xml version="1.0" encoding="UTF-8"?><!DOCTYPE svg PUBLIC "-//W3C//DTD SVG 1.1//EN" "http://www.w3.org/Graphics/SVG/1.1/DTD/svg11.dtd"><svg xmlns="http://www.w3.org/2000/svg" xmlns:xlink="http://www.w3.org/1999/xlink" version="1.1" width="24" height="24" viewBox="0 0 24 24"><path d="M13 11V7.5L15.2 5.29C16 4.5 16.15 3.24 15.59 2.26C15.14 1.47 14.32 1 13.45 1C13.24 1 13 1.03 12.81 1.09C11.73 1.38 11 2.38 11 3.5V6.74L7.86 9.91C6.2 11.6 5.7 14.13 6.61 16.34C7.38 18.24 9.06 19.55 11 19.89V20.5C11 20.76 10.77 21 10.5 21H9V23H10.5C11.85 23 13 21.89 13 20.5V20C15.03 20 17.16 18.08 17.16 15.25C17.16 12.95 15.24 11 13 11M13 3.5C13 3.27 13.11 3.09 13.32 3.03C13.54 2.97 13.77 3.06 13.88 3.26C14 3.46 13.96 3.71 13.8 3.87L13 4.73V3.5M11 11.5C10.03 12.14 9.3 13.24 9.04 14.26L11 14.78V17.83C9.87 17.53 8.9 16.71 8.43 15.57C7.84 14.11 8.16 12.45 9.26 11.33L11 9.5V11.5M13 18V12.94C14.17 12.94 15.18 14.04 15.18 15.25C15.18 17 13.91 18 13 18Z" fill="#000"/></svg>
